X: 7
T:7.  Coming Up On Cold Spring (edae tuning)
C:c2003 Harry Bolick
R:Breakdown
O:United States
A:Hastings On Hudson, New York
M:2/4
L:1/4
Q:130
K:D
 |: "Em"  (E/2e/2) (B/2d/2) | "G" G/2A/4B/4 A/4G/4E/4D/4 | "Em" E/2e/2 B/2d/2|  B/4c/4d/2 "D" e/2f/2 |
"G" g/2f/4g/4 f/4e/4d/2 | "Em"  g/2e/2 d/4B/4A/2 | E/4F/4G/4A/4 "G"  B/2d/2  | "C" =c/4B/4A/4G/4 "Em" E/2G/2 :|
|: "Em" B/2 e f/2 | g/4a/4g/4g/4 "D"f/4e/4d/2 |  "Em"B/4c/4d/4c/4 B/4A/4G/2 | "D"F/4G/4A/4A/4 B/4d/4 B/4A/4   :|
